X:1
T: Dan McCarty's Fancy
C:
R:Reel
Q: 232
K:A
M:4/4
L:1/8
|:gf|eA A2 e=g fg|eA A2 ef df|eA A2 eg fa|=ge dB Ag fg|
eA A2 e=g fg|eA A2 ef df|eA A2 eg fa|=ge dB AB cd|
ea ((3aga) bg ag|ea ag ((3efg) dg|ea ((3aga) ba ga|
=ge dB AB cd|ea ((3aga) bg ag|ea ag ef df|de ga bg af|=ge dB A2:|
